X:1
T: Quickstep
C:
R:Jig
Q:180
K:Bb
M:6/8
L:1/16
|:F2|B4B2 c2d2e2|f2d2B2 B2c2d2|e4e2 G2A2B2|c2A2F2 F2G2A2|
B4B2 c2d2e2|f2d2B2 B2c2d2|e4e2 F2G2A2|B6B4:|
|:f2|b4b2 g2a2b2|a2f2d2 d2e2f2|g4g2 e2f2g2|f2d2B2 B4f2|
|1b4b2 g2a2b2|a2f2d2 d4b2|a2g2f2 g2f2=e2|f6-f4:|
|2f2f2g2 a2g2a2|b2a2g2 f2e2d2|c2e2d2 c2B2A2|B6-B4||
